Numix-GalliumOS/64/status/semi-starred.svg

<?xml version="1.0" encoding="UTF-8" standalone="no"?>
<svg
   xmlns:dc="http://purl.org/dc/elements/1.1/"
   xmlns:cc="http://creativecommons.org/ns#"
   xmlns:rdf="http://www.w3.org/1999/02/22-rdf-syntax-ns#"
   xmlns:svg="http://www.w3.org/2000/svg"
   xmlns="http://www.w3.org/2000/svg"
   xmlns:sodipodi="http://sodipodi.sourceforge.net/DTD/sodipodi-0.dtd"
   xmlns:inkscape="http://www.inkscape.org/namespaces/inkscape"
   width="64"
   height="64"
   viewBox="0 0 64 64"
   id="svg2"
   version="1.1"
   inkscape:version="0.91 r13725"
   sodipodi:docname="semi-starred.svg">
  <metadata
     id="metadata18">
    <rdf:RDF>
      <cc:Work
         rdf:about="">
        <dc:format>image/svg+xml</dc:format>
        <dc:type
           rdf:resource="http://purl.org/dc/dcmitype/StillImage" />
        <dc:title></dc:title>
      </cc:Work>
    </rdf:RDF>
  </metadata>
  <defs
     id="defs16" />
  <sodipodi:namedview
     pagecolor="#ffffff"
     bordercolor="#666666"
     borderopacity="1"
     objecttolerance="10"
     gridtolerance="10"
     guidetolerance="10"
     inkscape:pageopacity="0"
     inkscape:pageshadow="2"
     inkscape:window-width="1366"
     inkscape:window-height="704"
     id="namedview14"
     showgrid="true"
     inkscape:zoom="8"
     inkscape:cx="30.92277"
     inkscape:cy="29.675476"
     inkscape:window-x="0"
     inkscape:window-y="27"
     inkscape:window-maximized="1"
     inkscape:current-layer="svg2">
    <inkscape:grid
       type="xygrid"
       id="grid2995" />
  </sodipodi:namedview>
  <path
     style="color:#000000;fill:#dfdd41;fill-opacity:1"
     d="M 32,3.0078125 C 27.918544,3.148062 25.607005,17.47737 22.279297,19.853516 18.934657,22.241752 4.3767856,19.802077 3.0878906,23.683594 1.7985009,27.566586 14.966583,34.220199 16.224609,38.113281 c 1.257533,3.891531 -5.514724,16.864624 -2.189453,19.279297 3.326592,2.415612 13.778904,-7.932891 17.902344,-7.916016 0.01989,7.9e-5 0.04232,0.0033 0.0625,0.0039 2.287374,-15.347925 3.024215,-30.792758 0,-46.4726565 z"
     id="path6"
     inkscape:connector-curvature="0"
     sodipodi:nodetypes="cssssccc" />
  <path
     style="opacity:1;fill:#808080;fill-opacity:1;stroke:none;stroke-width:0.5;stroke-linecap:round;stroke-linejoin:round;stroke-miterlimit:4;stroke-dasharray:none;stroke-opacity:1"
     d="M 32.066406 3 C 32.043915 2.9999109 32.022384 3.0070433 32 3.0078125 L 32 49.480469 C 36.161048 49.5973 46.38305 60.026004 49.710938 57.648438 C 53.056278 55.258404 46.359972 42.122896 47.650391 38.240234 C 48.940277 34.359124 62.17458 27.830658 60.916016 23.939453 C 59.656961 20.0467 45.05249 22.398893 41.726562 19.982422 C 38.40191 17.566891 36.188242 3.0158118 32.066406 3 z "
     id="rect4136" />
</svg>

<svg xmlns="http://www.w3.org/2000/svg" viewBox="0 0 64 64">
 <path d="m 32 3.01 c -4.081 0.14 -6.393 14.47 -9.721 16.846 -3.345 2.388 -17.903 -0.051 -19.19 3.83 -1.289 3.883 11.879 10.537 13.14 14.43 c 1.258 3.892 -5.515 16.865 -2.189 19.279 3.327 2.416 13.779 -7.933 17.902 -7.916 0.02 0 0.042 0.003 0.063 0.004 2.287 -15.348 3.02 -30.793 0 -46.47 z" style="fill:#dfdd41;fill-opacity:1;color:#000"/>
 <path d="m 32.07 3 c -0.022 0 -0.044 0.007 -0.066 0.008 l 0 46.47 c 4.161 0.117 14.383 10.546 17.711 8.168 c 3.345 -2.39 -3.351 -15.526 -2.061 -19.408 c 1.29 -3.881 14.524 -10.41 13.266 -14.301 c -1.259 -3.893 -15.864 -1.541 -19.19 -3.957 c -3.325 -2.416 -5.538 -16.967 -9.66 -16.982 z" style="fill:#808080;opacity:1;fill-opacity:1;stroke:none"/>
</svg>
